src/bundle/Resources/public/img/icons/lock-unlock.svg

<svg version="1.1" xmlns="http://www.w3.org/2000/svg" width="32" height="32" viewBox="0 0 32 32">
<title>lock-unlock</title>
<path d="M16,26.667 C13.791,26.667 12,24.876 12,22.667 C12,20.458 13.791,18.667 16,18.667 C18.209,18.667 20,20.458 20,22.667 L20,22.667 C20,24.876 18.209,26.667 16,26.667 L16,26.667 Z M16,21.333 C15.264,21.333 14.667,21.93 14.667,22.666 C14.667,23.402 15.264,23.999 16,23.999 C16.736,23.999 17.333,23.402 17.333,22.666 L17.333,22.666 C17.333,21.93 16.736,21.333 16,21.333 L16,21.333 L16,21.333 Z M26,13.333 L9.33299995,13.333 L9.33299995,6.14299996 C9.33499997,4.22399995 10.89,2.66799994 12.809,2.66599994 L19.056,2.66599994 C20.791,2.66799994 22.239,3.89099995 22.588,5.52199996 L22.592,5.54599996 C22.723,6.15699996 23.258,6.60799996 23.899,6.60799996 C24.636,6.60799996 25.234,6.00999996 25.234,5.27299996 C25.234,5.17599995 25.224,5.08199995 25.204,4.99099995 L25.206,4.99999993 C24.586,2.12799994 22.07,0.00599993336 19.057,-6.66666674e-08 L12.81,-6.66666674e-08 C9.41899997,0.00399993335 6.66999996,2.75199994 6.66699996,6.14299996 L6.66699996,13.333 L5.99999996,13.333 C4.52699995,13.333 3.33299995,14.527 3.33299995,15.9999999 L3.33299995,15.9999999 L3.33299995,29.3330001 C3.33299995,30.8060001 4.52699995,31.9999999 5.99999996,31.9999999 L5.99999996,31.9999999 L26,31.9999999 C27.473,31.9999999 28.6670001,30.8060001 28.6670001,29.3330001 L28.6670001,29.3330001 L28.6670001,15.9999999 C28.6670001,14.527 27.473,13.333 26,13.333 L26,13.333 L26,13.333 Z M5.99999996,29.3330001 L5.99999996,16 L26,16 L26,29.3330001 L5.99999996,29.3330001 Z"/>
</svg>

<svg version="1.1" xmlns="http://www.w3.org/2000/svg" width="32" height="32" viewBox="0 0 32 32">
<title>lock-unlock</title>
<path fill="#333" d="M16 26.667c-2.209 0-4-1.791-4-4s1.791-4 4-4c2.209 0 4 1.791 4 4v0c0 2.209-1.791 4-4 4v0zM16 21.333c-0.736 0-1.333 0.597-1.333 1.333s0.597 1.333 1.333 1.333c0.736 0 1.333-0.597 1.333-1.333v0c0-0.736-0.597-1.333-1.333-1.333v0zM26 13.333h-16.667v-7.19c0.002-1.919 1.557-3.475 3.476-3.477h6.247c1.735 0.002 3.183 1.225 3.532 2.856l0.004 0.024c0.131 0.611 0.666 1.062 1.307 1.062 0.737 0 1.335-0.598 1.335-1.335 0-0.097-0.010-0.191-0.030-0.282l0.002 0.009c-0.62-2.872-3.136-4.994-6.149-5h-6.247c-3.391 0.004-6.14 2.752-6.143 6.143v7.19h-0.667c-1.473 0-2.667 1.194-2.667 2.667v0 13.333c0 1.473 1.194 2.667 2.667 2.667v0h20c1.473 0 2.667-1.194 2.667-2.667v0-13.333c0-1.473-1.194-2.667-2.667-2.667v0zM6 29.333v-13.333h20v13.333z"></path>
</svg>
